resources/svg/document-sound.svg

<svg xmlns="http://www.w3.org/2000/svg" viewBox="0 0 24 24" fill="currentColor"><path fill="none" stroke="currentColor" stroke-width="2" d="M2.99787498,8.99999999 L2.99787498,0.999999992 L17.4999998,0.999999992 L20.9999998,4.50000005 L21,23 L18,23 M16,1 L16,6 L21,6 M1,14.0104121 L1,18.0104121 L4,18.0104121 L8,21.0104121 L8,11 L4,14.0104121 L1,14.0104121 Z M11,18 L11,18 C12.1045695,18 13,17.1045695 13,16 C13,14.8954305 12.1045695,14 11,14 M11,22 L11,22 C14.3137085,22 17,19.3137085 17,16 C17,12.6862915 14.3137085,10 11,10"/></svg>

<svg viewBox="0 0 24 24"><path fill="none" stroke="currentColor" stroke-width="2" d="M2.998 9V1H17.5L21 4.5V23h-3M16 1v5h5M1 14.01v4h3l4 3V11l-4 3.01H1zM11 18h0a2 2 0 1 0 0-4m0 8h0a6 6 0 1 0 0-12"/></svg>
